assets/images/members/forkbomb/forkbomb.svg

<svg xmlns="http://www.w3.org/2000/svg" width="2400" height="2400" fill="none" viewBox="0 0 2400 2400"><path fill="#0f237c" d="M0 0h2400v2400H0z"/><path fill="#fff" d="M565.786 1160.63q-66.542 0-107.734-36.48c-26.406-25.38-39.609-57.63-39.609-96.76q0-60.27 39.609-96.753 41.192-36.482 107.734-36.482 66.541 0 106.15 36.482 41.192 36.484 41.192 96.753c0 39.13-13.731 71.38-41.192 96.76q-39.609 36.48-106.15 36.48m0 637.64q-66.542 0-107.734-36.48c-26.406-24.32-39.609-56.57-39.609-96.76q0-60.27 39.609-96.75c27.461-24.32 63.373-36.49 107.734-36.49s79.744 12.17 106.15 36.49q41.192 36.48 41.192 96.75c0 40.19-13.731 72.44-41.192 96.76q-39.609 36.48-106.15 36.48M1441.3 1798.27c-95.06 0-168.99-26.44-221.81-79.31-52.81-52.87-79.21-125.83-79.21-218.89v-147.51c0-70.85 17.43-129.01 52.28-174.48 35.91-45.47 86.61-73.49 152.1-84.07l-20.6 42.83c-32.74-45.47-58.09-89.88-76.05-133.24q-25.35-65.032-25.35-128.478c0-52.873 12.68-98.872 38.03-137.997 25.35-40.183 60.73-71.378 106.15-93.584 45.41-23.264 98.75-34.895 160.01-34.895 63.38 0 118.3 12.16 164.77 36.481q71.295 36.483 109.32 101.515c26.41 42.298 39.61 92.526 39.61 150.686h-183.78q0-38.068-15.84-66.619c-10.57-19.034-25.88-33.31-45.95-42.827q-28.515-15.861-68.13-15.861-38.025 0-66.54 14.275c-19.01 9.517-33.8 23.264-44.36 41.24-9.51 17.977-14.26 39.126-14.26 63.447 0 25.379 6.34 53.401 19.01 84.067 13.73 30.67 32.22 61.86 55.46 93.58l218.63 309.31 87.14-166.55h191.7l-169.52 321.99 177.45 249.03h-198.05l-74.46-104.69c-73.93 80.37-163.18 120.55-267.75 120.55m15.84-163.37q45.945 0 85.56-25.38c26.4-16.92 49.11-40.19 68.12-69.79l-217.05-304.55c-22.18 8.46-38.55 22.74-49.11 42.83-10.57 19.03-15.85 43.88-15.85 74.55v147.51q0 63.45 33.27 99.93c23.24 23.26 54.93 34.9 95.06 34.9"/></svg>

<svg width="2400" height="2400" viewBox="0 0 2400 2400" fill="none" xmlns="http://www.w3.org/2000/svg">
<rect width="2400" height="2400" fill="#0F237C"/>
<path d="M565.786 1160.63C521.425 1160.63 485.513 1148.47 458.052 1124.15C431.646 1098.77 418.443 1066.52 418.443 1027.39C418.443 987.211 431.646 954.959 458.052 930.637C485.513 906.316 521.425 894.155 565.786 894.155C610.147 894.155 645.53 906.316 671.936 930.637C699.397 954.959 713.128 987.211 713.128 1027.39C713.128 1066.52 699.397 1098.77 671.936 1124.15C645.53 1148.47 610.147 1160.63 565.786 1160.63ZM565.786 1798.27C521.425 1798.27 485.513 1786.11 458.052 1761.79C431.646 1737.47 418.443 1705.22 418.443 1665.03C418.443 1624.85 431.646 1592.6 458.052 1568.28C485.513 1543.96 521.425 1531.79 565.786 1531.79C610.147 1531.79 645.53 1543.96 671.936 1568.28C699.397 1592.6 713.128 1624.85 713.128 1665.03C713.128 1705.22 699.397 1737.47 671.936 1761.79C645.53 1786.11 610.147 1798.27 565.786 1798.27Z" fill="white"/>
<path d="M1441.3 1798.27C1346.24 1798.27 1272.31 1771.83 1219.49 1718.96C1166.68 1666.09 1140.28 1593.13 1140.28 1500.07V1352.56C1140.28 1281.71 1157.71 1223.55 1192.56 1178.08C1228.47 1132.61 1279.17 1104.59 1344.66 1094.01L1324.06 1136.84C1291.32 1091.37 1265.97 1046.96 1248.01 1003.6C1231.11 960.246 1222.66 917.419 1222.66 875.122C1222.66 822.249 1235.34 776.25 1260.69 737.125C1286.04 696.942 1321.42 665.747 1366.84 643.541C1412.25 620.277 1465.59 608.646 1526.85 608.646C1590.23 608.646 1645.15 620.806 1691.62 645.127C1739.15 669.449 1775.59 703.287 1800.94 746.642C1827.35 788.94 1840.55 839.168 1840.55 897.328H1656.77C1656.77 871.949 1651.49 849.743 1640.93 830.709C1630.36 811.675 1615.05 797.399 1594.98 787.882C1575.97 777.308 1553.26 772.021 1526.85 772.021C1501.5 772.021 1479.32 776.779 1460.31 786.296C1441.3 795.813 1426.51 809.56 1415.95 827.536C1406.44 845.513 1401.69 866.662 1401.69 890.983C1401.69 916.362 1408.03 944.384 1420.7 975.05C1434.43 1005.72 1452.92 1036.91 1476.16 1068.63L1694.79 1377.94L1781.93 1211.39H1973.63L1804.11 1533.38L1981.56 1782.41H1783.51L1709.05 1677.72C1635.12 1758.09 1545.87 1798.27 1441.3 1798.27ZM1457.14 1634.9C1487.77 1634.9 1516.29 1626.44 1542.7 1609.52C1569.1 1592.6 1591.81 1569.33 1610.82 1539.73L1393.77 1235.18C1371.59 1243.64 1355.22 1257.92 1344.66 1278.01C1334.09 1297.04 1328.81 1321.89 1328.81 1352.56V1500.07C1328.81 1542.37 1339.9 1575.68 1362.08 1600C1385.32 1623.26 1417.01 1634.9 1457.14 1634.9Z" fill="white"/>
</svg>
